X:1
T:Title
%%score { ( 1 3 ) | ( 2 4 ) }
L:1/8
M:4/4
K:G
V:1 treble nm="Grand Piano"
V:3 treble 
V:2 bass 
V:4 bass 
V:1
 z4 z2[Q:1/4=100] G>A | [B,DGB]2 [B,DGB]2 [B,DGB]2 [B,DGB]2 | B>A G>A [B,DB]2 A>B | %3
 [CEAc]2 [CEAc]2 [CEAc]2 [CEAc]2 | c>B A>B [CEAc]2 B>c | [DGd]2 [B,DGB]2 [A,CFA]2 [G,B,EG]2 | %6
 [B,EGB]2 [A,DFA]2 [G,B,EG]2 F>G | .[A,DFA]2 .[A,DFA]2 .[B,EGA]2 .[GA]2 | %8
[M:7/8] [FAd]-[FAd]-[FAd]- [FAd]- [FAd]3 |[M:1/4] D2 |[M:4/4] G>F G>A B2 d2 | [FB]4 z4 | %12
 A>^G A>B [Fc]2 [Fd]2 | d6 z2 | [DG]2 [DG]2 A2 A2 | B2 c2 d2 G>G | [EA]2 [EA]2 [EB]2 [EB]2 | %17
[M:5/4] [Ec]2 d2 e3 e3 |[M:4/4] d>e d>c B2 [DG]2 |[M:7/8] [CA]2- [CFA]2 G3 |] %20
V:2
 z8 | [G,,G,]2 [E,,E,]2 [D,,D,]2 [B,,,B,,]2 | [G,,,G,,]2 [D,,D,]2 [G,,G,]2 z2 | %3
 [A,,A,]2 [E,,E,]2 [C,,C,]2 [B,,,B,,]2 | [A,,,A,,]2 [E,,E,]2 [A,,A,]2 z2 | %5
 [B,,,B,,]2 [D,,D,]2 [^D,,^D,]2 [E,,E,]2 | [B,,,B,,]2 [B,,,B,,]2 [E,,E,]2 z2 | %7
 [A,,,A,,]2 [D,,D,]2 [A,,A,]2 [A,^CE]2 |[M:7/8] [D,D]2 [A,,A,]2 [D,,D,]3 |[M:1/4] [F,A,]2 | %10
[M:4/4][K:treble] [G,B,D]>[A,CD] [G,B,D]>[G,CD] [G,DG]2 [G,B,G]2 | z2 ^C2 D,2 [F,A,]2 | %12
 [D,F,D]>[D,=F,D] [D,^F,D]>[D,G,D] [D,A,]2 [D,C]2 | [G,B,G]2 [A,C]2[K:bass] [G,B,]2 [F,A,]>[C,A,] | %14
 [B,,G,]2 [B,,G,]2 [D,F,D]2 [D,F,D]2 | [G,D]2 [G,A,D]2 [G,B,D]2 [G,B,D]>[G,B,D] | %16
 [C,C]2 [C,A,]2 [B,,^G,]2 [B,,G,]2 |[M:5/4] [A,,A,]2[K:treble] [A,B,E]2 [A,CE]3 [_B,^CG]3 | %18
[M:4/4] [B,DG]>[CG] [B,DG]>[A,DF] [G,DG]2[K:bass] B,,2 |[M:7/8] C,2 D,2 [G,B,]3 |] %20
V:3
 x8 | x8 | [B,D]2 [B,D]2 z4 | x8 | [CE]2 [CE]2 z4 | x8 | x8 | x8 |[M:7/8] z z z2 C3 |[M:1/4] x2 | %10
[M:4/4] x8 | D2 z2 [CFA]2 D2 | x8 | z2 F2 G2 D>D | x8 | x8 | x8 |[M:5/4] x10 |[M:4/4] x8 | %19
[M:7/8] E2 z z z z2 |] %20
V:4
 x8 | x8 | x8 | x8 | x8 | x8 | x8 | x8 |[M:7/8] x7 |[M:1/4] x2 |[M:4/4][K:treble] x8 | D,4 z4 | %12
 x8 | x4[K:bass] x4 | x8 | x8 | x8 |[M:5/4] x2[K:treble] x8 |[M:4/4] x6[K:bass] x2 |[M:7/8] x7 |] %20

